assets/images/index.svg

<?xml version="1.0" encoding="UTF-8"?>
<!DOCTYPE svg PUBLIC "-//W3C//DTD SVG 1.1//EN" "http://www.w3.org/Graphics/SVG/1.1/DTD/svg11.dtd">
<svg xmlns="http://www.w3.org/2000/svg" version="1.1" width="120px" height="120px" style="shape-rendering:geometricPrecision; text-rendering:geometricPrecision; image-rendering:optimizeQuality; fill-rule:evenodd; clip-rule:evenodd" xmlns:xlink="http://www.w3.org/1999/xlink">
<g><path style="opacity:0.82" fill="#fefffe" d="M 84.5,27.5 C 84.5,28.1667 84.8333,28.5 85.5,28.5C 89.0794,32.6235 93.0794,36.2901 97.5,39.5C 97.5,40.1667 97.8333,40.5 98.5,40.5C 98.5,41.1667 98.8333,41.5 99.5,41.5C 104.472,46.301 109.638,50.9676 115,55.5C 116.772,60.3993 114.939,62.2326 109.5,61C 93.2796,45.6099 76.613,30.7766 59.5,16.5C 42.4126,30.7479 25.7459,45.5812 9.5,61C 4.07457,62.2224 2.24124,60.3891 4,55.5C 21.8078,39.6954 39.6411,23.8621 57.5,8C 59.1667,7.33333 60.8333,7.33333 62.5,8C 69.7244,14.7304 77.0577,21.2304 84.5,27.5 Z"/></g>
<g><path style="opacity:0.777" fill="#fefffe" d="M 99.5,41.5 C 98.8333,41.5 98.5,41.1667 98.5,40.5C 97.8333,40.5 97.5,40.1667 97.5,39.5C 97.5,33.8333 97.5,28.1667 97.5,22.5C 95.5,22.5 93.5,22.5 91.5,22.5C 92.5,27.5 90.5,29.5 85.5,28.5C 84.8333,28.5 84.5,28.1667 84.5,27.5C 84.3347,23.8183 84.5014,20.1516 85,16.5C 85.5,16 86,15.5 86.5,15C 92.2195,14.2124 97.8862,14.3791 103.5,15.5C 104.192,16.0253 104.692,16.6919 105,17.5C 105.667,24.8333 105.667,32.1667 105,39.5C 103.556,41.1554 101.722,41.822 99.5,41.5 Z"/></g>
<g><path style="opacity:0.817" fill="#fefffe" d="M 18.5,55.5 C 19.5832,55.5394 20.5832,55.8728 21.5,56.5C 22.4994,72.4861 22.8328,88.4861 22.5,104.5C 47.1667,104.5 71.8333,104.5 96.5,104.5C 96.3334,88.8298 96.5001,73.1631 97,57.5C 99,56.1667 101,56.1667 103,57.5C 103.667,75.1667 103.667,92.8333 103,110.5C 102.5,111 102,111.5 101.5,112C 73.5,112.667 45.5,112.667 17.5,112C 16.8742,111.25 16.3742,110.416 16,109.5C 15.3333,92.1667 15.3333,74.8333 16,57.5C 16.9947,56.9341 17.828,56.2674 18.5,55.5 Z"/></g>
</svg>

<svg xmlns="http://www.w3.org/2000/svg" width="120" height="120" style="shape-rendering:geometricPrecision;text-rendering:geometricPrecision;image-rendering:optimizeQuality;fill-rule:evenodd;clip-rule:evenodd"><path fill="#fefffe" d="M84.5 27.5q0 1 1 1a71.4 71.4 0 0 0 12 11q0 1 1 1 0 1 1 1a316 316 0 0 0 15.5 14q2.658 7.35-5.5 5.5a1048 1048 0 0 0-50-44.5A1042 1042 0 0 0 9.5 61Q1.362 62.834 4 55.5A188082 188082 0 0 0 57.5 8q2.5-1 5 0a589 589 0 0 0 22 19.5" style="opacity:.82"/><path fill="#fefffe" d="M99.5 41.5q-1 0-1-1-1 0-1-1v-17h-6c1 5-1 7-6 6q-1 0-1-1a61 61 0 0 1 .5-11l1.5-1.5a50.8 50.8 0 0 1 17 .5 4.46 4.46 0 0 1 1.5 2 121 121 0 0 1 0 22q-2.166 2.483-5.5 2" style="opacity:.777"/><path fill="#fefffe" d="M18.5 55.5a5.58 5.58 0 0 1 3 1q1.5 23.979 1 48h74q-.25-23.505.5-47 3-2 6 0a702 702 0 0 1 0 53l-1.5 1.5q-42 1-84 0a9.5 9.5 0 0 1-1.5-2.5 676 676 0 0 1 0-52q1.492-.85 2.5-2" style="opacity:.817"/></svg>
